storage/app/icons/phosphoricons/thin/currency-cny-thin.svg

<svg xmlns="http://www.w3.org/2000/svg" fill="currentColor" viewBox="0 0 256 256"><path d="M60 56a4 4 0 0 1 4-4h128a4 4 0 0 1 0 8H64a4 4 0 0 1-4-4m156 108a4 4 0 0 0-4 4v20h-36a20 20 0 0 1-20-20v-52h52a4 4 0 0 0 0-8H48a4 4 0 0 0 0 8h52v12a60.07 60.07 0 0 1-60 60 4 4 0 0 0 0 8 68.07 68.07 0 0 0 68-68v-12h40v52a28 28 0 0 0 28 28h40a4 4 0 0 0 4-4v-24a4 4 0 0 0-4-4"/></svg>

<svg xmlns="http://www.w3.org/2000/svg" viewBox="0 0 256 256" fill="currentColor"><path d="M60,56a4,4,0,0,1,4-4H192a4,4,0,0,1,0,8H64A4,4,0,0,1,60,56ZM216,164a4,4,0,0,0-4,4v20H176a20,20,0,0,1-20-20V116h52a4,4,0,0,0,0-8H48a4,4,0,0,0,0,8h52v12a60.07,60.07,0,0,1-60,60,4,4,0,0,0,0,8,68.07,68.07,0,0,0,68-68V116h40v52a28,28,0,0,0,28,28h40a4,4,0,0,0,4-4V168A4,4,0,0,0,216,164Z"/></svg>
